X: 1
T: Missa Fors seulement / Kyrie
N: Derived from Pip1004a-Missa_Fors_seulement-Kyrie.krn
C: Matthaeus Pipelare
%%abc-version 2.0
%%abcx-abcm2ps-target-version 5.9.1 (29 Sep 2008)
%%abc-creator hum2abc beta
%%abcx-conversion-date 2019/02/17 07:30:01
%%abc-edited-by Jesse Rodin
%%abc-edited-by Jesse Rodin 8/24/2013
%%abcx-initial-encoding-date 2013/08/24/
%%humdrum-veritas 2633066171
%%humdrum-veritas-data 2376327389
%%linebreak <none>
%%barnumbers 0
L: 1/4
M: 2/1
Q: 1/2=120
V: 1 clef=treble
V: 2 clef=treble-8
V: 3 clef=bass
V: 4 clef=bass
V: 5 clef=bass
K: C
[V:1] z8 | 
[V:2] z8 | 
[V:3] D,8 | 
[V:4] z8 | 
[V:5] z8 | 
[V:1] z8 | 
[V:2] z8 | 
[V:3] F,4E,4 | 
[V:4] z8 | 
[V:5] z8 | 
[V:1] D8 | 
[V:2] z8 | 
[V:3] F,4G,4 | 
[V:4] z8 | 
[V:5] z8 | 
[V:1] F4E4 | 
[V:2] z8 | 
[V:3] A,6G,2 | 
[V:4] z8 | 
[V:5] z8 | 
[V:1] F4G4 | 
[V:2] z8 | 
[V:3] F,2E,D,E,4 | 
[V:4] z8 | 
[V:5] z8 | 
[V:1] A6G2 | 
[V:2] z8 | 
[V:3] D,2F,4E,2 | 
[V:4] z8 | 
[V:5] z8 | 
[V:1] F2EDF2E2- | 
[V:2] z8 | 
[V:3] D,2C,B,,A,,2A,2- | 
[V:4] z8 | 
[V:5] z8 | 
[V:1] EA,D4^C2 | 
[V:2] z8 | 
[V:3] A,2G,F,E,4 | 
[V:4] z8 | 
[V:5] z8 | 
[V:1] D8- | 
[V:2] A8- | 
[V:3] D,8- | 
[V:4] D,8 | 
[V:5] D,,8- | 
[V:1] D8 | 
[V:2] A8 | 
[V:3] D,8 | 
[V:4] F,6E,D, | 
[V:5] D,,8 | 
[V:1] z8 | 
[V:2] A8 | 
[V:3] z4z2A,2- | 
[V:4] C,4D,4 | 
[V:5] F,,4D,,4 | 
[V:1] z8 | 
[V:2] A8 | 
[V:3] A,G,F,E,F,2E,D, | 
[V:4] A,,2A,4G,F, | 
[V:5] F,,6G,,2 | 
[V:1] z2A,3B,CD | 
[V:2] A8 | 
[V:3] C,4z2C2- | 
[V:4] E,2F,4E,D, | 
[V:5] A,,8- | 
[V:1] E2C3DEF | 
[V:2] A8 | 
[V:3] CB,A,G,A,2G,F, | 
[V:4] C,2F,4E,2- | 
[V:5] A,,8 | 
[V:1] G2FED2E2- | 
[V:2] G8 | 
[V:3] E,3F,G,2E,2- | 
[V:4] E,2D,C,B,,2C,2- | 
[V:5] z8 | 
[V:1] EFG3FED | 
[V:2] G8 | 
[V:3] E,2D,C,D,4 | 
[V:4] C,2B,,A,,B,,4 | 
[V:5] z8 | 
[V:1] C8- | 
[V:2] A8- | 
[V:3] E,2F,4E,D, | 
[V:4] A,,2A,4G,F, | 
[V:5] z4A,,4- | 
[V:1] C8 | 
[V:2] A8 | 
[V:3] C,4C,2C2- | 
[V:4] E,2F,4E,D, | 
[V:5] A,,4A,,4 | 
[V:1] z8 | 
[V:2] z8 | 
[V:3] C2A,4B,2- | 
[V:4] E,4D,2F,2- | 
[V:5] C,4D,4 | 
[V:1] z8 | 
[V:2] z8 | 
[V:3] B,A,A,4^G,2 | 
[V:4] F,E,E,4D,2 | 
[V:5] A,,2C,2B,,4 | 
[V:1] z8 | 
[V:2] c8- | 
[V:3] A,8- | 
[V:4] E,8- | 
[V:5] A,,8- | 
[V:1] z4E4 | 
[V:2] c4c4 | 
[V:3] A,8- | 
[V:4] E,4C,4 | 
[V:5] A,,8 | 
[V:1] F4A4- | 
[V:2] c8 | 
[V:3] A,8- | 
[V:4] F,8 | 
[V:5] z8 | 
[V:1] A2GFE4 | 
[V:2] c8 | 
[V:3] A,8 | 
[V:4] E,8 | 
[V:5] A,,8 | 
[V:1] F6G2 | 
[V:2] d8 | 
[V:3] z4A,4- | 
[V:4] D,8 | 
[V:5] D,,6E,,2 | 
[V:1] A4D2G2- | 
[V:2] c4B4- | 
[V:3] A,4G,4- | 
[V:4] z8 | 
[V:5] F,,4G,,4 | 
[V:1] GFEDC2F2- | 
[V:2] B4A4- | 
[V:3] G,4A,4 | 
[V:4] z4z2C,2 | 
[V:5] E,,4F,,4 | 
[V:1] FEDCB,4 | 
[V:2] A4G4 | 
[V:3] F,4G,4 | 
[V:4] D,2A,,2E,4 | 
[V:5] D,,4E,,4 | 
[V:1] A,4D4- | 
[V:2] A8- | 
[V:3] C,4D,2F,2- | 
[V:4] A,,8- | 
[V:5] F,,4D,,4 | 
[V:1] D2^C2C2B,C | 
[V:2] A8- | 
[V:3] F,2E,D,E,4 | 
[V:4] A,,8- | 
[V:5] A,,8 | 
[V:1] D8 ||  
[V:2] A8 ||  
[V:3] D,8 ||  
[V:4] A,,8 ||  
[V:5] D,,8 ||  
[V:1]  [K:C] [K:clef=treble][M:2/1]E8- | 
[V:2]  [K:C] [K:clef=treble-8][M:2/1]A8- | 
[V:3]  [K:C] [K:clef=bass][M:2/1]E,8- | 
[V:4]  [K:C] [K:clef=bass][M:2/1]C,8- | 
[V:5]  [K:C] [K:clef=bass][M:2/1]A,,8- | 
[V:1] E8 | 
[V:2] A8 | 
[V:3] E,8 | 
[V:4] C,8 | 
[V:5] A,,8 | 
[V:1] F8- | 
[V:2] A8- | 
[V:3] D,8 | 
[V:4] F,8 | 
[V:5] D,,8- | 
[V:1] F8 | 
[V:2] A8 | 
[V:3] F,6E,D, | 
[V:4] D,8 | 
[V:5] D,,8 | 
[V:1] E8- | 
[V:2] A8 | 
[V:3] C,8- | 
[V:4] E,8 | 
[V:5] A,,8- | 
[V:1] E8 | 
[V:2] A8 | 
[V:3] C,8 | 
[V:4] z4E,4 | 
[V:5] A,,8 | 
[V:1] D8 | 
[V:2] B8 | 
[V:3] z8 | 
[V:4] G,4z2G,2- | 
[V:5] z8 | 
[V:1] G8 | 
[V:2] G8 | 
[V:3] z8 | 
[V:4] G,F,E,D,E,4 | 
[V:5] z8 | 
[V:1] F4E2F2- | 
[V:2] A8- | 
[V:3] z8 | 
[V:4] D,4C,2D,2- | 
[V:5] z8 | 
[V:1] F2EDE2F2- | 
[V:2] A8 | 
[V:3] z4z2D,2 | 
[V:4] D,2C,B,,C,2D,2- | 
[V:5] z8 | 
[V:1] F2EDF2E2- | 
[V:2] z8 | 
[V:3] F,2G,2A,4 | 
[V:4] D,2C,B,,A,,3B,, | 
[V:5] z8 | 
[V:1] EDD4^C2 | 
[V:2] z8 | 
[V:3] G,F,E,D,E,4 | 
[V:4] C,2D,2A,,4 | 
[V:5] z8 | 
[V:1] D8 | 
[V:2] z8 | 
[V:3] D,4z2D2- | 
[V:4] A,8- | 
[V:5] z4D,4- | 
[V:1] z8 | 
[V:2] z8 | 
[V:3] D2CB,C2D2 | 
[V:4] A,8 | 
[V:5] D,4F,4 | 
[V:1] z8 | 
[V:2] z8 | 
[V:3] G,2A,B,C2B,2- | 
[V:4] z8 | 
[V:5] E,4C,2D,2- | 
[V:1] z8 | 
[V:2] z8 | 
[V:3] B,A,A,4^G,2 | 
[V:4] z8 | 
[V:5] D,A,,C,2B,,4 | 
[V:1] z8 | 
[V:2] z8 | 
[V:3] A,8 | 
[V:4] z8 | 
[V:5] A,,8 | 
[V:1] z8 | 
[V:2] z8 | 
[V:3] E,4z2A,2- | 
[V:4] z8 | 
[V:5] z4A,,4- | 
[V:1] z8 | 
[V:2] z8 | 
[V:3] A,2G,F,G,2A,2 | 
[V:4] z8 | 
[V:5] A,,4C,4 | 
[V:1] z8 | 
[V:2] z8 | 
[V:3] D,2E,F,G,2F,2- | 
[V:4] z8 | 
[V:5] B,,4G,,2A,,2- | 
[V:1] z8 | 
[V:2] z8 | 
[V:3] F,E,E,4D,2 | 
[V:4] z8 | 
[V:5] A,,E,,G,,2F,,4 | 
[V:1] z8 | 
[V:2] z8 | 
[V:3] E,8- | 
[V:4] z8 | 
[V:5] E,,8 | 
[V:1] z8 | 
[V:2] z8 | 
[V:3] E,8 | 
[V:4] z8 | 
[V:5] z4A,,4- | 
[V:1] z8 | 
[V:2] z8 | 
[V:3] z2E,4G,2- | 
[V:4] z8 | 
[V:5] A,,4G,,4 | 
[V:1] z8 | 
[V:2] z8 | 
[V:3] G,2F,E,F,4 | 
[V:4] z8 | 
[V:5] C,4D,4 | 
[V:1] z8 | 
[V:2] z8 | 
[V:3] E,4A,4 | 
[V:4] z8 | 
[V:5] E,2C,4D,2 | 
[V:1] z8 | 
[V:2] z8 | 
[V:3] G,2C4B,A, | 
[V:4] z8 | 
[V:5] E,4F,4 | 
[V:1] z8 | 
[V:2] z8 | 
[V:3] B,4G,2A,2- | 
[V:4] z8 | 
[V:5] D,2E,3D,C,B,, | 
[V:1] z8 | 
[V:2] z8 | 
[V:3] A,2G,F,A,2G,2- | 
[V:4] z8 | 
[V:5] A,,6B,,2 | 
[V:1] z8 | 
[V:2] z8 | 
[V:3] G,F,E,D,E,4 | 
[V:4] z8 | 
[V:5] C,2D,3^C,C,B,, | 
[V:1] A8 | 
[V:2] z8 | 
[V:3] D,8 | 
[V:4] z4z2A,2- | 
[V:5] D,8- | 
[V:1] A6GF | 
[V:2] z8 | 
[V:3] z8 | 
[V:4] A,G,F,E,F,2E,D, | 
[V:5] D,8 | 
[V:1] E2F4ED | 
[V:2] A8 | 
[V:3] z8 | 
[V:4] C,2D,4C,B,, | 
[V:5] z8 | 
[V:1] C4F4 | 
[V:2] A6B2 | 
[V:3] z8 | 
[V:4] A,,4D,4 | 
[V:5] z8 | 
[V:1] E4D4 | 
[V:2] c4B4- | 
[V:3] z8 | 
[V:4] C,4D,4 | 
[V:5] z8 | 
[V:1] G4C3D | 
[V:2] B4A4- | 
[V:3] z8 | 
[V:4] E,4A,,3B,, | 
[V:5] z8 | 
[V:1] E2F2D4 | 
[V:2] A4G4 | 
[V:3] z8 | 
[V:4] C,2D,2B,,4 | 
[V:5] z8 | 
[V:1] C8- | 
[V:2] A8 | 
[V:3] z2E,2F,3E, | 
[V:4] A,,4z2A,2- | 
[V:5] z4z2A,,2 | 
[V:1] C8- | 
[V:2] z8 | 
[V:3] E,4z2E,2 | 
[V:4] A,2G,2A,4 | 
[V:5] C,4A,,4 | 
[V:1] C8- | 
[V:2] z8 | 
[V:3] F,3E,E,4 | 
[V:4] z2A,4G,2 | 
[V:5] z2A,,2C,4 | 
[V:1] C8 | 
[V:2] z8 | 
[V:3] z2E,2F,3E, | 
[V:4] A,4z2A,2- | 
[V:5] A,,4z2A,,2 | 
[V:1] z8 | 
[V:2] z8 | 
[V:3] E,4z2E,2- | 
[V:4] A,G,G,F,A,2G,F, | 
[V:5] C,4A,,4 | 
[V:1] z8 | 
[V:2] E8- | 
[V:3] E,2D,C,B,,4 | 
[V:4] E,4z2E,2- | 
[V:5] z2A,,4G,,2 | 
[V:1] z8 | 
[V:2] E8 | 
[V:3] A,,2A,4^G,2 | 
[V:4] E,2D,C,B,,4 | 
[V:5] A,,4E,,4 | 
[V:1] z8 | 
[V:2] E8 | 
[V:3] A,4z2A,,2- | 
[V:4] A,,4B,,2C,2- | 
[V:5] z2A,,2G,,2A,,2- | 
[V:1] z4E4 | 
[V:2] E8 | 
[V:3] A,,2B,,2C,4 | 
[V:4] C,2B,,A,,G,,4 | 
[V:5] A,,2G,,F,,E,,4 | 
[V:1] A,2D4CB, | 
[V:2] F8- | 
[V:3] D,8 | 
[V:4] A,,8 | 
[V:5] D,,8 | 
[V:1] A,4B,4 | 
[V:2] F6ED | 
[V:3] z4z2D,2 | 
[V:4] z8 | 
[V:5] z8 | 
[V:1] C4A,4 | 
[V:2] C8 | 
[V:3] E,4F,4 | 
[V:4] z8 | 
[V:5] A,,8 | 
[V:1] B,2D4CB, | 
[V:2] D8 | 
[V:3] G,2F,E,D,2G,2 | 
[V:4] z8 | 
[V:5] G,,8 | 
[V:1] A,4A4 | 
[V:2] F8 | 
[V:3] C,4D,4 | 
[V:4] z4A,,4 | 
[V:5] F,,8 | 
[V:1] G4E4 | 
[V:2] G8 | 
[V:3] E,8 | 
[V:4] B,,2C,4B,,A,, | 
[V:5] E,,8 | 
[V:1] z2E4G2- | 
[V:2] E8- | 
[V:3] z8 | 
[V:4] B,,2C,4B,,A,, | 
[V:5] E,,8- | 
[V:1] G2FEG4 | 
[V:2] E8 | 
[V:3] z2E,4G,2- | 
[V:4] G,,8 | 
[V:5] E,,8 | 
[V:1] z4z2G2- | 
[V:2] D8- | 
[V:3] G,2F,E,G,4 | 
[V:4] B,,8- | 
[V:5] G,,8- | 
[V:1] G2FEG4 | 
[V:2] D8- | 
[V:3] z4G,4 | 
[V:4] B,,8 | 
[V:5] G,,8 | 
[V:1] F8 ||  
[V:2] D8 ||  
[V:3] A,8 ||  
[V:4] A,,8 ||  
[V:5] D,,8 ||  
[V:1]  [K:C] [K:clef=treble][M:2/1]z8 | 
[V:2]  [K:C] [K:clef=treble-8][M:2/1]A8- | 
[V:3]  [K:C] [K:clef=bass][M:2/1]z4z2F,2- | 
[V:4]  [K:C] [K:clef=bass][M:2/1]A,,3B,,C,2D,2 | 
[V:5]  [K:C] [K:clef=bass][M:2/1]z8 | 
[V:1] z8 | 
[V:2] A8 | 
[V:3] F,2E,D,E,4 | 
[V:4] A,,2D,4^C,2 | 
[V:5] z8 | 
[V:1] z2F4ED | 
[V:2] A8 | 
[V:3] D,2D4CB, | 
[V:4] D,8 | 
[V:5] z8 | 
[V:1] C4F4- | 
[V:2] A8 | 
[V:3] A,4F,4 | 
[V:4] F,8 | 
[V:5] z8 | 
[V:1] F2E2E2DE | 
[V:2] G8 | 
[V:3] C8 | 
[V:4] C,8 | 
[V:5] z8 | 
[V:1] F8- | 
[V:2] F8 | 
[V:3] A,8 | 
[V:4] D,8- | 
[V:5] z8 | 
[V:1] F8 | 
[V:2] A6B2 | 
[V:3] z8 | 
[V:4] D,4F,4 | 
[V:5] z4D,4 | 
[V:1] z8 | 
[V:2] c4B4- | 
[V:3] z8 | 
[V:4] E,4D,4 | 
[V:5] C,4D,4 | 
[V:1] z8 | 
[V:2] B4A4- | 
[V:3] z4E,4 | 
[V:4] E,4C,4 | 
[V:5] A,,4C,4 | 
[V:1] z8 | 
[V:2] A4G4 | 
[V:3] F,4G,4 | 
[V:4] D,8 | 
[V:5] B,,8 | 
[V:1] z8 | 
[V:2] A8 | 
[V:3] C,2C4B,A, | 
[V:4] E,4z2E,2- | 
[V:5] A,,6G,,F,, | 
[V:1] z4z2E2- | 
[V:2] z8 | 
[V:3] G,4A,4 | 
[V:4] E,D,C,B,,A,,4- | 
[V:5] E,,4z4 | 
[V:1] EDCB,A,2A2- | 
[V:2] A8- | 
[V:3] E,4z4 | 
[V:4] A,,4z4 | 
[V:5] z2A,,3G,,F,,E,, | 
[V:1] AGF2E2F2- | 
[V:2] A8 | 
[V:3] z2A,3G,F,E, | 
[V:4] z8 | 
[V:5] D,,2D,2C,2D,2 | 
[V:1] FED4^C2 | 
[V:2] A8 | 
[V:3] D,2F,2E,4 | 
[V:4] z8 | 
[V:5] D,,4A,,4 | 
[V:1] D4z2D2 | 
[V:2] A8 | 
[V:3] D,8 | 
[V:4] z2D,3C,B,,A,, | 
[V:5] D,,8 | 
[V:1] DCB,A,G,2G2- | 
[V:2] B8 | 
[V:3] z8 | 
[V:4] G,,8- | 
[V:5] z8 | 
[V:1] G2FED4 | 
[V:2] B8 | 
[V:3] z2G,3F,E,D, | 
[V:4] G,,8 | 
[V:5] z8 | 
[V:1] E3FG2A2 | 
[V:2] c8- | 
[V:3] C,3D,E,2F,2 | 
[V:4] z8 | 
[V:5] z8 | 
[V:1] G2A4GF | 
[V:2] c8 | 
[V:3] E,2F,4E,D, | 
[V:4] z8 | 
[V:5] z8 | 
[V:1] E4z2E2- | 
[V:2] c8- | 
[V:3] C,8 | 
[V:4] z4z2A,,2- | 
[V:5] z8 | 
[V:1] E2A3^GG^F | 
[V:2] c4B4 | 
[V:3] z8 | 
[V:4] A,,B,,C,D,E,4 | 
[V:5] z8 | 
[V:1] A8 | 
[V:2] A8 | 
[V:3] z8 | 
[V:4] F,2E,D,F,2E,2- | 
[V:5] z4A,,4 | 
[V:1] z8 | 
[V:2] G8 | 
[V:3] z8 | 
[V:4] E,2D,C,D,4 | 
[V:5] C,4B,,4 | 
[V:1] z4E4 | 
[V:2] A8 | 
[V:3] z8 | 
[V:4] E,6D,C, | 
[V:5] A,,8 | 
[V:1] F4E4- | 
[V:2] F4G4- | 
[V:3] z4E,4 | 
[V:4] D,4C,4 | 
[V:5] z8 | 
[V:1] E2D2D4- | 
[V:2] G2F2E2D2 | 
[V:3] F,4G,4 | 
[V:4] B,,8 | 
[V:5] z8 | 
[V:1] D2^C2C2B,C | 
[V:2] E8 | 
[V:3] A,8 | 
[V:4] A,,8 | 
[V:5] A,,8 | 
[V:1] D8 |]  
[V:2] D8 |]  
[V:3] A,8 |]  
[V:4] A,,8 |]  
[V:5] D,,8 |]  



